assets/icons/utility/contract.svg

<?xml version="1.0"?><svg xmlns="http://www.w3.org/2000/svg" width="52" height="52" viewBox="0 0 52 52"><path fill="#fff" d="m29.6 24h15.4c1 0 1.3-1.1 0.5-1.9l-4.9-5 9-9.1c0.5-0.5 0.5-1.4 0-1.9l-3.7-3.7c-0.5-0.4-1.3-0.4-1.9 0.1l-9 9-5.1-4.9c-0.8-0.8-1.9-0.5-1.9 0.5v15.4c0 0.7 0.9 1.5 1.6 1.5z m-7.2 4h-15.4c-1 0-1.3 1.1-0.5 1.9l4.9 5-9 9.1c-0.5 0.5-0.5 1.4 0 1.9l3.7 3.7c0.5 0.5 1.3 0.5 1.9 0l9.1-9.1 5.1 4.9c0.7 0.9 1.8 0.6 1.8-0.4v-15.3c0-0.7-0.9-1.7-1.6-1.7z m5.6 1.6v15.4c0 1 1.1 1.3 1.9 0.5l5-4.9 9.1 9c0.5 0.5 1.4 0.5 1.9 0l3.7-3.7c0.4-0.5 0.4-1.3-0.1-1.9l-9-9 4.9-5.1c0.8-0.8 0.5-1.9-0.5-1.9h-15.4c-0.7 0-1.5 0.9-1.5 1.6z m-4-7.2v-15.4c0-1-1.1-1.3-1.9-0.5l-5 4.9-9.1-9c-0.5-0.5-1.4-0.5-1.9 0l-3.7 3.7c-0.5 0.5-0.5 1.3 0 1.9l9.1 9.1-4.9 5.1c-0.9 0.7-0.6 1.8 0.4 1.8h15.3c0.7 0 1.7-0.9 1.7-1.6z"></path></svg>

<svg xmlns="http://www.w3.org/2000/svg" x="0px" y="0px"
	 width="52px" height="52px" viewBox="0 0 52 52" enable-background="new 0 0 52 52" xml:space="preserve">
<path fill="#FFFFFF" d="M29.6,24H45c1,0,1.3-1.1,0.5-1.9l-4.9-5l9-9.1c0.5-0.5,0.5-1.4,0-1.9l-3.7-3.7C45.4,2,44.6,2,44,2.5l-9,9
	l-5.1-4.9C29.1,5.8,28,6.1,28,7.1v15.4C28,23.2,28.9,24,29.6,24z"/>
<path fill="#FFFFFF" d="M22.4,28H7c-1,0-1.3,1.1-0.5,1.9l4.9,5l-9,9.1c-0.5,0.5-0.5,1.4,0,1.9l3.7,3.7c0.5,0.5,1.3,0.5,1.9,0
	l9.1-9.1l5.1,4.9C22.9,46.3,24,46,24,45V29.7C24,29,23.1,28,22.4,28z"/>
<path fill="#FFFFFF" d="M28,29.6V45c0,1,1.1,1.3,1.9,0.5l5-4.9l9.1,9c0.5,0.5,1.4,0.5,1.9,0l3.7-3.7c0.4-0.5,0.4-1.3-0.1-1.9l-9-9
	l4.9-5.1c0.8-0.8,0.5-1.9-0.5-1.9H29.5C28.8,28,28,28.9,28,29.6z"/>
<path fill="#FFFFFF" d="M24,22.4V7c0-1-1.1-1.3-1.9-0.5l-5,4.9L8,2.4c-0.5-0.5-1.4-0.5-1.9,0L2.4,6.1C1.9,6.6,1.9,7.4,2.4,8l9.1,9.1
	l-4.9,5.1C5.7,22.9,6,24,7,24h15.3C23,24,24,23.1,24,22.4z"/>
</svg>
